src/qt/bcz/res/img/img-empty-peers.svg

<svg xmlns="http://www.w3.org/2000/svg" width="100" height="100" viewBox="0 0 100 100"  xmlns:xlink="http://www.w3.org/1999/xlink"><rect id="svgEditorBackground" x="0" y="0" width="100" height="100" style="fill:none;stroke:none;"/>
    <defs>
        <style type="text/css">
            .cls-1{fill:#d6d6d6}.cls-2{fill:#666}.cls-3{fill:none}
        </style>
    </defs>
    <g id="ic_empty_peers">
        <g id="Group_9024" data-name="Group 9024">
            <g id="Group_9023" data-name="Group 9023">
                <circle id="Ellipse_618" cx="12" cy="12" r="12" class="cls-1" data-name="Ellipse 618" transform="translate(38 38)" style="fill:#7FFFD4;"/>
                <circle id="Ellipse_619" cx="8" cy="8" r="8" class="cls-1" data-name="Ellipse 619" transform="translate(42 8)" style="fill:#7FFFD4;"/>
                <circle id="Ellipse_620" cx="8" cy="8" r="8" class="cls-1" data-name="Ellipse 620" transform="translate(42 76)" style="fill:#7FFFD4;"/>
                <circle id="Ellipse_621" cx="8" cy="8" r="8" class="cls-1" data-name="Ellipse 621" transform="translate(12.555 25)" style="fill:#7FFFD4;"/>
                <circle id="Ellipse_622" cx="8" cy="8" r="8" class="cls-1" data-name="Ellipse 622" transform="translate(71.445 59)" style="stroke:aquamarine;fill:#7FFFD4;"/>
                <circle id="Ellipse_623" cx="8.1724" cy="7.65518" r="8" class="cls-1" data-name="Ellipse 623" transform="translate(12.555 59)" style="fill:#7FFFD4;"/>
                <circle id="Ellipse_624" cx="8" cy="8" r="8" class="cls-1" data-name="Ellipse 624" transform="translate(71.445 25)" style="stroke:aquamarine;fill:#7FFFD4;"/>
            </g>
            <path id="Path_18980" d="M83.945,59.206a8.983,8.983,0,0,0,-3.5,-1.1409999999999982v-10.065000000000005h-2v10.066000000000003a9.028,9.028,0,0,0,-6.236999999999995,3.6000000000000014l-10.5,-6.061a12.835,12.835,0,0,0,0,-11.212000000000003l10.5,-6.061a9.028,9.028,0,0,0,6.236000000000004,3.6000000000000014v2.067999999999998h2v-2.064a9,9,0,1,0,-8.244,-14.273l-13.958000000000006,-8.062999999999999a9,9,0,1,0,-16.484,0l-13.957999999999995,8.062999999999999a9,9,0,1,0,-8.244,14.273v10.064h2v-10.066000000000003a9.032,9.032,0,0,0,6.236999999999998,-3.6000000000000014l10.5,6.060000000000002a12.839,12.839,0,0,0,0,11.213999999999999l-10.5,6.060000000000002a9.028,9.028,0,0,0,-6.237000000000002,-3.6000000000000014v-2.067999999999998h-2v2.0649999999999977a9,9,0,1,0,8.244000000000003,14.272000000000006l13.958000000000002,8.063000000000002a9,9,0,1,0,16.484,0l13.957999999999998,-8.063000000000002a9,9,0,1,0,11.745000000000005,-13.131ZM50,61a11,11,0,1,1,11,-11a11.013,11.013,0,0,1,-11,11ZM75.945,26.938000000000002a7,7,0,1,1,-3.2609999999999957,4.25a6.986,6.986,0,0,1,3.2609999999999957,-4.25ZM50,9a7,7,0,1,1,-7,7a7.008,7.008,0,0,1,7,-7ZM26.617,36.5a7,7,0,0,1,-12.823,-1.6880000000000024a6.953,6.953,0,0,1,0.6999999999999993,-5.312000000000001a7,7,0,0,1,9.561999999999998,-2.562000000000001a7,7,0,0,1,2.561,9.561999999999998ZM28.798000000000002,36.6a8.935,8.935,0,0,0,0.4510000000000005,-5.934000000000001a9.138,9.138,0,0,0,-0.4559999999999995,-1.2710000000000008l13.973000000000003,-8.068000000000001a8.992,8.992,0,0,0,6.233999999999995,3.6140000000000008v3.059000000000001h2v-3.059000000000001a8.992,8.992,0,0,0,6.234000000000002,-3.6099999999999994l13.972999999999992,8.068999999999999a9.2,9.2,0,0,0,-0.45600000000000307,1.2719999999999985a8.935,8.935,0,0,0,0.4490000000000123,5.928000000000004l-10.482,6.057000000000002a13,13,0,0,0,-9.718000000000004,-5.606000000000002v-5.051000000000002h-2v5.051000000000002a13,13,0,0,0,-9.718000000000004,5.606000000000002ZM24.055,73.06200000000001a7,7,0,1,1,3.2609999999999992,-4.25a6.99,6.99,0,0,1,-3.2609999999999992,4.25ZM50,91a7,7,0,1,1,7,-7a7.008,7.008,0,0,1,-7,7ZM57.234,78.669a8.992,8.992,0,0,0,-6.234000000000002,-3.6099999999999994v-3.0589999999999975h-2v3.0589999999999975a8.994,8.994,0,0,0,-6.234000000000002,3.6089999999999947l-13.972999999999999,-8.067999999999998a9.151,9.151,0,0,0,0.4559999999999995,-1.2720000000000056a8.932,8.932,0,0,0,-0.44899999999999807,-5.92799999999999l10.484999999999996,-6.052999999999997a13,13,0,0,0,9.715000000000003,5.601999999999997v5.051000000000002h2v-5.051000000000002a13,13,0,0,0,9.718000000000004,-5.606000000000002l10.482,6.057000000000002a8.932,8.932,0,0,0,-0.4509999999999934,5.933a9.151,9.151,0,0,0,0.45600000000000307,1.2720000000000056ZM85.507,70.5a7,7,0,0,1,-9.561999999999998,2.5619999999999976a7,7,0,0,1,-2.5619999999999976,-9.561999999999998a7,7,0,0,1,12.123999999999995,7Z" class="cls-2" data-name="Path 18980" style="fill:#2FF0C2;"/>
        </g>
        <path id="Rectangle_4675" d="M0 0h100v100H0z" class="cls-3" data-name="Rectangle 4675"/>
    </g>
</svg>

<svg xmlns="http://www.w3.org/2000/svg" width="100" height="100" viewBox="0 0 100 100">
    <defs>
        <style type="text/css">
            .cls-1{fill:#d6d6d6}.cls-2{fill:#666}.cls-3{fill:none}
        </style>
    </defs>
    <g id="ic_empty_peers">
        <g id="Group_9024" data-name="Group 9024">
            <g id="Group_9023" data-name="Group 9023">
                <circle id="Ellipse_618" cx="12" cy="12" r="12" class="cls-1" data-name="Ellipse 618" transform="translate(38 38)"/>
                <circle id="Ellipse_619" cx="8" cy="8" r="8" class="cls-1" data-name="Ellipse 619" transform="translate(42 8)"/>
                <circle id="Ellipse_620" cx="8" cy="8" r="8" class="cls-1" data-name="Ellipse 620" transform="translate(42 76)"/>
                <circle id="Ellipse_621" cx="8" cy="8" r="8" class="cls-1" data-name="Ellipse 621" transform="translate(12.555 25)"/>
                <circle id="Ellipse_622" cx="8" cy="8" r="8" class="cls-1" data-name="Ellipse 622" transform="translate(71.445 59)"/>
                <circle id="Ellipse_623" cx="8" cy="8" r="8" class="cls-1" data-name="Ellipse 623" transform="translate(12.555 59)"/>
                <circle id="Ellipse_624" cx="8" cy="8" r="8" class="cls-1" data-name="Ellipse 624" transform="translate(71.445 25)"/>
            </g>
            <path id="Path_18980" d="M83.945 59.206a8.983 8.983 0 0 0-3.5-1.141V48h-2v10.066a9.028 9.028 0 0 0-6.237 3.6l-10.5-6.061a12.835 12.835 0 0 0 0-11.212l10.5-6.061a9.028 9.028 0 0 0 6.236 3.6V44h2v-2.064A9 9 0 1 0 72.2 27.663L58.242 19.6a9 9 0 1 0-16.484 0L27.8 27.663a9 9 0 1 0-8.244 14.273V52h2V41.934a9.032 9.032 0 0 0 6.237-3.6l10.5 6.06a12.839 12.839 0 0 0 0 11.214l-10.5 6.06a9.028 9.028 0 0 0-6.237-3.6V56h-2v2.065A9 9 0 1 0 27.8 72.337L41.758 80.4a9 9 0 1 0 16.484 0L72.2 72.337a9 9 0 1 0 11.745-13.131zM50 61a11 11 0 1 1 11-11 11.013 11.013 0 0 1-11 11zm25.945-34.062a7 7 0 1 1-3.261 4.25 6.986 6.986 0 0 1 3.261-4.25zM50 9a7 7 0 1 1-7 7 7.008 7.008 0 0 1 7-7zM26.617 36.5a7 7 0 0 1-12.823-1.688 6.953 6.953 0 0 1 .7-5.312 7 7 0 0 1 9.562-2.562 7 7 0 0 1 2.561 9.562zm2.181.1a8.935 8.935 0 0 0 .451-5.934 9.138 9.138 0 0 0-.456-1.271l13.973-8.068A8.992 8.992 0 0 0 49 24.941V28h2v-3.059a8.992 8.992 0 0 0 6.234-3.61L71.207 29.4a9.2 9.2 0 0 0-.456 1.272A8.935 8.935 0 0 0 71.2 36.6l-10.482 6.057A13 13 0 0 0 51 37.051V32h-2v5.051a13 13 0 0 0-9.718 5.606zm-4.743 36.462a7 7 0 1 1 3.261-4.25 6.99 6.99 0 0 1-3.261 4.25zM50 91a7 7 0 1 1 7-7 7.008 7.008 0 0 1-7 7zm7.234-12.331A8.992 8.992 0 0 0 51 75.059V72h-2v3.059a8.994 8.994 0 0 0-6.234 3.609L28.793 70.6a9.151 9.151 0 0 0 .456-1.272A8.932 8.932 0 0 0 28.8 63.4l10.485-6.053A13 13 0 0 0 49 62.949V68h2v-5.051a13 13 0 0 0 9.718-5.606L71.2 63.4a8.932 8.932 0 0 0-.451 5.933 9.151 9.151 0 0 0 .456 1.272zM85.507 70.5a7 7 0 0 1-9.562 2.562 7 7 0 0 1-2.562-9.562 7 7 0 0 1 12.124 7z" class="cls-2" data-name="Path 18980"/>
        </g>
        <path id="Rectangle_4675" d="M0 0h100v100H0z" class="cls-3" data-name="Rectangle 4675"/>
    </g>
</svg>
